neru-light-classic/32x32/apps/hardinfo.svg

<?xml version="1.0" encoding="UTF-8" standalone="no"?>
<svg
   xmlns:dc="http://purl.org/dc/elements/1.1/"
   xmlns:cc="http://creativecommons.org/ns#"
   xmlns:rdf="http://www.w3.org/1999/02/22-rdf-syntax-ns#"
   xmlns:svg="http://www.w3.org/2000/svg"
   xmlns="http://www.w3.org/2000/svg"
   xmlns:sodipodi="http://sodipodi.sourceforge.net/DTD/sodipodi-0.dtd"
   xmlns:inkscape="http://www.inkscape.org/namespaces/inkscape"
   height="32"
   width="32"
   version="1"
   id="svg12"
   sodipodi:docname="hardinfo.svg"
   inkscape:version="0.92.1 r">
  <metadata
     id="metadata18">
    <rdf:RDF>
      <cc:Work
         rdf:about="">
        <dc:format>image/svg+xml</dc:format>
        <dc:type
           rdf:resource="http://purl.org/dc/dcmitype/StillImage" />
        <dc:title />
      </cc:Work>
    </rdf:RDF>
  </metadata>
  <defs
     id="defs16" />
  <sodipodi:namedview
     pagecolor="#ffffff"
     bordercolor="#666666"
     borderopacity="1"
     objecttolerance="10"
     gridtolerance="10"
     guidetolerance="10"
     inkscape:pageopacity="0"
     inkscape:pageshadow="2"
     inkscape:window-width="1680"
     inkscape:window-height="955"
     id="namedview14"
     showgrid="false"
     inkscape:zoom="7.375"
     inkscape:cx="-38.011017"
     inkscape:cy="11.185256"
     inkscape:window-x="0"
     inkscape:window-y="0"
     inkscape:window-maximized="1"
     inkscape:current-layer="svg12" />
  <rect
     style="opacity:1;fill:#42baff;fill-opacity:1;fill-rule:evenodd;stroke:none;stroke-width:1.03534329;stroke-linecap:round;stroke-linejoin:bevel;stroke-miterlimit:4;stroke-dasharray:none;stroke-dashoffset:0;stroke-opacity:1"
     id="rect4497"
     width="28.203388"
     height="28.203388"
     x="1.8983059"
     y="1.8983059"
     ry="5.575182" />
  <g
     id="g4565"
     transform="translate(-1e-7,0.2987696)">
    <path
       inkscape:connector-curvature="0"
       id="path2"
       d="m 19.121155,7.6859439 c -0.185821,-0.082929 -0.423126,-0.030809 -0.5559,0.12339 L 17.188194,9.3711616 C 16.421593,9.2510892 15.638838,9.2444423 14.883662,9.3562054 L 13.509959,7.7768532 C 13.367825,7.6116885 13.10562,7.5655461 12.915416,7.6719237 L 9.5989013,9.5697364 C 9.4101246,9.6799842 9.3167699,9.929767 9.3881106,10.136433 L 10.05574,12.131448 C 9.8203536,12.42453 9.6024217,12.730133 9.4072649,13.064622 9.2121011,13.399124 9.0532858,13.739181 8.9139925,14.08835 L 6.848706,14.488854 c -0.215001,0.0396 -0.3875131,0.245462 -0.3905958,0.464052 l -0.019161,3.81938 c 0.00101,0.217897 0.170184,0.423485 0.383909,0.465945 l 2.0508775,0.418706 c 0.2743347,0.712389 0.6652919,1.390548 1.1470373,1.99885 l -0.6820228,1.967346 c -0.072487,0.205241 0.018441,0.455056 0.2049311,0.567294 l 3.2963697,1.923255 c 0.189344,0.107346 0.45171,0.06335 0.5947,-0.100752 l 1.377061,-1.561828 c 0.766602,0.120073 1.54936,0.126715 2.304533,0.01496 l 1.373703,1.579352 c 0.142127,0.16516 0.404342,0.211303 0.594542,0.104929 l 3.31553,-1.896124 c 0.18877,-0.110252 0.283118,-0.361716 0.211775,-0.568384 L 21.944266,21.69082 c 0.235382,-0.293083 0.453284,-0.598627 0.648475,-0.933175 0.195163,-0.334501 0.353919,-0.674592 0.493273,-1.023727 L 25.1513,19.333414 c 0.215,-0.0396 0.386522,-0.243778 0.389611,-0.462365 l 0.02014,-3.821067 c -10e-4,-0.217899 -0.17019,-0.423489 -0.383909,-0.465945 L 23.126265,14.16533 c -0.2745,-0.712903 -0.665468,-1.39065 -1.147037,-1.99885 l 0.682028,-1.967349 C 22.733738,9.9938874 22.642818,9.7440703 22.456324,9.6318366 L 19.159956,7.708582 c -0.01272,-0.00782 -0.02579,-0.01545 -0.0388,-0.022638 z m -0.06993,3.9955341 c 2.888602,1.685345 3.863776,5.392275 2.178432,8.280877 -1.685345,2.888602 -5.392275,3.863775 -8.280878,2.178431 -2.888602,-1.685345 -3.8637758,-5.392275 -2.178431,-8.280877 1.685345,-2.888602 5.392275,-3.8637759 8.280877,-2.178431 z"
       style="fill:#ffffff;stroke-width:0.68155366;enable-background:new" />
    <circle
       r="1.762712"
       cy="6.1441178"
       cx="16"
       id="path4488"
       style="opacity:1;fill:#ffffff;fill-opacity:1;fill-rule:evenodd;stroke:none;stroke-width:0.30000001;stroke-linecap:round;stroke-linejoin:bevel;stroke-miterlimit:4;stroke-dasharray:none;stroke-dashoffset:0;stroke-opacity:1" />
    <path
       inkscape:connector-curvature="0"
       id="path4490"
       d="m 16,13.440315 v 6.941668"
       style="fill:none;stroke:#ffffff;stroke-width:3.20000005;stroke-linecap:round;stroke-linejoin:miter;stroke-miterlimit:4;stroke-dasharray:none;stroke-opacity:1" />
  </g>
</svg>

<svg xmlns="http://www.w3.org/2000/svg" height="32" width="32" version="1"><rect width="28.203" height="28.203" x="1.898" y="1.898" ry="5.575" fill="#42baff" fill-rule="evenodd"/><g transform="translate(0 .299)"><path d="M19.121 7.686a.49.49 0 0 0-.556.123l-1.377 1.562a7.682 7.682 0 0 0-2.304-.015l-1.374-1.58a.492.492 0 0 0-.595-.104L9.6 9.57a.491.491 0 0 0-.21.566l.667 1.995a7.606 7.606 0 0 0-.649.934 7.602 7.602 0 0 0-.493 1.023l-2.065.4a.494.494 0 0 0-.39.465l-.02 3.82c.001.217.17.423.384.465l2.05.419c.275.712.666 1.39 1.148 1.999l-.682 1.967a.492.492 0 0 0 .205.567l3.296 1.924c.19.107.452.063.595-.101l1.377-1.562c.766.12 1.55.127 2.304.015l1.374 1.58a.492.492 0 0 0 .595.104l3.315-1.896a.494.494 0 0 0 .212-.568l-.668-1.995c.236-.293.454-.599.649-.933.195-.335.354-.675.493-1.024l2.065-.4a.491.491 0 0 0 .39-.463l.02-3.821a.492.492 0 0 0-.384-.466l-2.05-.419a7.684 7.684 0 0 0-1.148-1.999l.682-1.967a.492.492 0 0 0-.205-.567L19.16 7.709a.972.972 0 0 0-.039-.023zm-.07 3.995a6.054 6.054 0 1 1-6.102 10.46 6.054 6.054 0 1 1 6.102-10.46z" fill="#fff"/><circle r="1.763" cy="6.144" cx="16" fill="#fff" fill-rule="evenodd"/><path d="M16 13.44v6.942" fill="none" stroke="#fff" stroke-width="3.2" stroke-linecap="round"/></g></svg>
